!!!COM: Corelli, Arcangelo
!!!OTL: Sonate a tre [in F]
!!!XEN: Trio Sonata Opus 1, No. 1
!!!OPS: Opus 1
!!!ONM: No. 1
!!!OMV: Movement 4.
!!!YEC: Copyright 1994, Center for Computer Assisted Research in the Humanities
!!!YEM: Rights to all derivative electronic formats reserved.
!!!YEM: Refer to licensing agreement for further details.
!! For the following instrumentation: Violino I & II, Violone/Archlute,
!!    and Organo.
!! Allegro.
**kern	**kern	**kern	**kern
*ICklav	*ICstr	*ICstr	*ICstr
*Iorgan	*Icello	*Ivioln	*Ivioln
*	*Iarchl	*	*
!Organo	!Violone	!Violin 2	!Violin 1
!	! or	!	!
!	!Archlute	!	!
*>[A,A]	*>[A,A]	*>[A,A]	*>[A,A]
*>A	*>A	*>A	*>A
*clefF4	*clefF4	*clefG2	*clefG2
*k[b-]	*k[b-]	*k[b-]	*k[b-]
*F:	*F:	*F:	*F:
*M3/4	*M3/4	*M3/4	*M3/4
*MM108	*MM108	*MM108	*MM108
=1-	=1-	=1-	=1-
2.F\	2.r	2.r	8ff\L
.	.	.	8ee\
.	.	.	8ff\
.	.	.	8gg\J
.	.	.	4aa\
=2	=2	=2	=2
2.D\	2.r	2.r	8bb-\L
.	.	.	8aa\
.	.	.	8bb-\
.	.	.	8ccc\J
.	.	.	4ddd\
=3	=3	=3	=3
2.E\	2.r	2.r	2ccc\
.	.	.	4bb-\
=4	=4	=4	=4
2.F\	2.r	2.r	8aa\L
.	.	.	8bb-\
.	.	.	8aa\
.	.	.	8gg\J
.	.	.	4ff\
=5	=5	=5	=5
2.C/	2.r	8cc\L	2.ee\
.	.	8b\	.
.	.	8cc\	.
.	.	8dd\J	.
.	.	4ee\	.
=6	=6	=6	=6
2.D\	2.r	8ff\L	2.a/
.	.	8ee\	.
.	.	8ff\	.
.	.	8gg\J	.
.	.	4aa\	.
=7	=7	=7	=7
2.GG/	2.r	2gg\	2.b\
.	.	4ff\	.
=8	=8	=8	=8
2.C/	2.r	8ee\L	2.cc\
.	.	8ff\	.
.	.	8ee\	.
.	.	8dd\J	.
.	.	4cc\	.
=9	=9	=9	=9
8F\L	8F\L	2ccc\	4.a/
8E\	8E\	.	.
8F\	8F\	.	.
8G\J	8G\J	.	8b-\
4A\	4A\	4ccc\	4cc\
=10	=10	=10	=10
8B-\L	8B-\L	2ff\	4.dd\
8A\	8A\	.	.
8B-\	8B-\	.	.
8c\J	8c\J	.	8ee\
4d\	4d\	4bb-\	[4ff\
=11	=11	=11	=11
2c\	2c\	4aa\	4ff\]
.	.	2gg\	2ee\
4B-\	4B-\	.	.
=12	=12	=12	=12
8A\L	8A\L	2.ff\	2.ff\
8B-\	8B-\	.	.
8A\	8A\	.	.
8G\J	8G\J	.	.
4F\	4F\	.	.
=13	=13	=13	=13
2.F\	2.F\	8ff\L	8aa\L
.	.	8ee\	8gg\
.	.	8ff\	8aa\
.	.	8gg\J	8bb-\J
.	.	4ff\	4aa\
=14	=14	=14	=14
2.C#/	2.C#/	8ee\L	8gg\L
.	.	8dd\	8ff\
.	.	8ee\	8gg\
.	.	8ff\J	8aa\J
.	.	4ee\	4gg\
=15	=15	=15	=15
2.D\	2.D\	8dd\L	8ff\L
.	.	8cc#\	8ee\
.	.	8dd\	8ff\
.	.	8ee\J	8gg\J
.	.	4dd\	4ff\
=16	=16	=16	=16
2.A\	2.A\	2cc#\	2ee\
.	.	4cc#\	4a/
=17	=17	=17	=17
4.F\	4.F\	4.a/	2aa\
8G\	8G\	8b\	.
4A\	4A\	4cc#\	4gg\
=18	=18	=18	=18
4B-\	4B-\	(8dd\L	(8ff\L
.	.	8ee\)	8gg\)
4F\	4F\	(8ff\	(8aa\
.	.	8ee\J)	8gg\J)
4G\	4G\	4dd\	4ff\
=19	=19	=19	=19
2A\	2A\	2cc#\	2ee\
4D\	4D\	4dd\	4dd\
=20	=20	=20	=20
2.r	2.r	2.r	(8bb-\L
.	.	.	8aa\
.	.	.	8gg\
.	.	.	8aa\J)
.	.	.	4bb-\
=21	=21	=21	=21
2.C/	2.C/	2.ee\	(2bb-\
.	.	.	4aa\)
=22	=22	=22	=22
2.r	2.r	2.r	(8aa\L
.	.	.	8gg\
.	.	.	8ff\
.	.	.	8gg\J)
.	.	.	4aa\
=23	=23	=23	=23
2.BB-/	2.BB-/	2.dd\	(2aat\
.	.	.	4gg\)
=24	=24	=24	=24
2.r	2.r	2.r	(8gg\L
.	.	.	8ff\
.	.	.	8ee\
.	.	.	8ff\J)
.	.	.	4gg\
=25	=25	=25	=25
2.C/	2.C/	2.ee\	2gg\
.	.	.	4cc\
=26	=26	=26	=26
4.AA/	4.AA/	4.cc\	2ccc\
8BB-/	8BB-/	8dd\	.
4C/	4C/	4ee\	4bb-\
=27	=27	=27	=27
4.D\	4.D\	8ff\L	8aa\L
.	.	8ee\	8gg\
.	.	8dd\	8aa\
8C/	8C/	8ee\J	8bb-\J
4BB-/	4BB-/	4ff\	4aa\
=28	=28	=28	=28
2C/	2C/	2ee\	2gg\
4FF/	4FF/	4ff\	4ff\
=29	=29	=29	=29
8F\L	8F\L	2.r	2.r
8E\	8E\	.	.
8F\	8F\	.	.
8G\J	8G\J	.	.
4A\	4A\	.	.
=30	=30	=30	=30
2F\	2F\	8cc\L	2.r
.	.	8b\	.
.	.	8cc\	.
.	.	8dd\J	.
4C/	4C/	4ee\	.
=31	=31	=31	=31
2F\	2F\	8a/L	8ff\L
.	.	8g/	8ee\
.	.	8a/	8ff\
.	.	8b/J	8gg\J
4FF/	4FF/	4cc\	4aa\
=32	=32	=32	=32
2F\	2F\	8cc\L	8aa\L
.	.	8b\	8gg\
.	.	8cc\	8aa\
.	.	8dd\J	8bb\J
4C/	4C/	4ee\	4ccc\
=33	=33	=33	=33
2G\	2G\	4dd\	2bb\
.	.	4g/	.
4E\	4E\	4g/	4gg\
=34	=34	=34	=34
2F\	2F\	2a/	8ff\L
.	.	.	8ee\
.	.	.	8ff\
.	.	.	8gg\J
4G\	4G\	4b\	4ff\
=35	=35	=35	=35
4A\	4A\	8cc\L	8ee\L
.	.	8b\	8dd\
4E\	4E\	8cc\	8ee\
.	.	8dd\J	8ff\J
4F\	4F\	4cc\	4ee\
=36	=36	=36	=36
2G\	2G\	2b\	2dd\
4C/	4C/	4cc\	4cc\
*clefG2	*	*	*
=37	=37	=37	=37
8cc\L	2.r	2.r	8cc\L
8b\	.	.	8b\
8cc\	.	.	8cc\
8dd\J	.	.	8dd\J
4ee\	.	.	4ee\
=38	=38	=38	=38
8ff\L	2.r	2.r	8ff\L
8ee\	.	.	8ee\
8ff\	.	.	8ff\
8gg\J	.	.	8gg\J
4aa\	.	.	4aa\
=39	=39	=39	=39
8f/L	2.r	8ff\L	8a/L
8e/	.	8ee\	8g/
8f/	.	8ff\	8a/
8g/J	.	8gg\J	8b-/J
4a/	.	4aa\	4cc\
=40	=40	=40	=40
8a/L	2.r	8aa\L	8cc\L
8g/	.	8gg\	8b\
8a/	.	8aa\	8cc\
8b/J	.	8bb\J	8dd\J
4cc\	.	4ccc\	4ee\
*clefF4	*	*	*
=41	=41	=41	=41
8C/L	8C/L	2.r	2.r
8BB/	8BB/	.	.
8C/	8C/	.	.
8D/J	8D/J	.	.
4E\	4E\	.	.
=42	=42	=42	=42
8F\L	8F\L	2.r	2.r
8E\	8E\	.	.
8F\	8F\	.	.
8G\J	8G\J	.	.
4A\	4A\	.	.
=43	=43	=43	=43
2c\	2c\	8cc\L	8ee\L
.	.	8b\	8dd\
.	.	8cc\	8ee\
.	.	8dd\J	8ff\J
4B-\	4B-\	4ee\	4gg\
=44	=44	=44	=44
4.A\	4.A\	8ff\L	8aa\L
.	.	8ee\	8gg\
.	.	8ff\	8aa\
8G\	8G\	8gg\J	8bb-\J
4F\	4F\	4aa\	4ccc\
=45	=45	=45	=45
2c\	2c\	2ee\	2gg\
4F\	4F\	4ff\	4ff\
=46	=46	=46	=46
2.F\	2.F\	2.r	8f/L
.	.	.	8e/
.	.	.	8f/
.	.	.	8g/J
.	.	.	4a/
=47	=47	=47	=47
2.D\	2.D\	2.r	8b-\L
.	.	.	8a\
.	.	.	8b-\
.	.	.	8cc\J
.	.	.	4dd\
=48	=48	=48	=48
2.E\	2.E\	2.r	2cc\
.	.	.	4b-\
=49	=49	=49	=49
2.F\	2.F\	2.r	8a/L
.	.	.	8b-/
.	.	.	8a/
.	.	.	8g/J
.	.	.	4f/
=50	=50	=50	=50
2.C/	2.C/	8cc\L	2e/
.	.	8b\	.
.	.	8cc\	.
.	.	8dd\J	.
.	.	4ee\	4cc\
=51	=51	=51	=51
2.D\	2.D\	8ff\L	2.a/
.	.	8ee\	.
.	.	8ff\	.
.	.	8gg\J	.
.	.	4aa\	.
=52	=52	=52	=52
2.GG/	2.GG/	2gg\	2.b\
.	.	4ff\	.
=53	=53	=53	=53
2.C/	2.C/	8ee\L	2.cc\
.	.	8ff\	.
.	.	8ee\	.
.	.	8dd\J	.
.	.	4cc\	.
=54	=54	=54	=54
8F\L	8F\L	4.a/	2ccc\
8E\	8E\	.	.
8F\	8F\	.	.
8G\J	8G\J	8b-\	.
4A\	4A\	4cc\	4ccc\
=55	=55	=55	=55
8B-\L	8B-\L	4.dd\	2ff\
8A\	8A\	.	.
8B-\	8B-\	.	.
8c\J	8c\J	8ee\	.
4d\	4d\	4ff\	4bb-\
=56	=56	=56	=56
2c\	2c\	4ff\	4aa\
.	.	2ee\	2gg\
4B-\	4B-\	.	.
=57	=57	=57	=57
8A\L	8A\L	2.ff\	2.ff\
8B-\	8B-\	.	.
8A\	8A\	.	.
8G\J	8G\J	.	.
4F\	4F\	.	.
=58	=58	=58	=58
2.r	2.r	8aa\L	8ff\L
.	.	8bb-\	8gg\
.	.	8aa\	8ff\
.	.	8gg\J	8ee\J
.	.	4ff\	4dd\
=59	=59	=59	=59
8B-\L	8B-\L	2.r	2.r
8c\	8c\	.	.
8B-\	8B-\	.	.
8A\J	8A\J	.	.
4G\	4G\	.	.
=60	=60	=60	=60
2.r	2.r	8bb-\L	8gg\L
.	.	8ccc\	8aa\
.	.	8bb-\	8gg\
.	.	8aa\J	8ff\J
.	.	4gg\	4ee\
=61	=61	=61	=61
8c\L	8c\L	2.r	2.r
8d\	8d\	.	.
8c\	8c\	.	.
8B-\J	8B-\J	.	.
4A\	4A\	.	.
=62	=62	=62	=62
2.r	2.r	8ccc\L	8aa\L
.	.	8ddd\	8bb-\
.	.	8ccc\	8aa\
.	.	8bb-\J	8gg\J
.	.	4aa\	4ff\
=63	=63	=63	=63
8d\L	8d\L	2.r	2.r
8e\	8e\	.	.
8d\	8d\	.	.
8c\J	8c\J	.	.
4B-\	4B-\	.	.
=64	=64	=64	=64
2G\	2G\	8ee\L	8gg\L
.	.	8ff\	8aa\
.	.	8ee\	8gg\
.	.	8dd\J	8ff\J
4A\	4A\	4cc#\	4ee\
=65	=65	=65	=65
2.r	2.r	(8aa\L	2.r
.	.	8gg\	.
.	.	8ff\	.
.	.	8gg\J)	.
.	.	4aa\	.
=66	=66	=66	=66
2.B-\	2.B-\	2aat\	2.dd\
.	.	4gg\	.
=67	=67	=67	=67
2.r	2.r	(8gg\L	2.r
.	.	8ff\	.
.	.	8ee\	.
.	.	8ff\J)	.
.	.	4gg\	.
=68	=68	=68	=68
2.A\	2.A\	2ggT\	2.cc\
.	.	4ff\	.
=69	=69	=69	=69
2.F\	2.F\	(8aa\L	4.a/
.	.	8gg\	.
.	.	8ff\	.
.	.	8gg\J)	8b\
.	.	4aa\	4cc\
=70	=70	=70	=70
4G\	4G\	2ggT\	4b\
4E\	4E\	.	4cc#\
4D\	4D\	4ff\	4dd\
=71	=71	=71	=71
2A\	2A\	(8ee\L	8cc#\L
.	.	8dd\	8b\
.	.	8ee\	8cc#\
.	.	8ff\J)	8dd\J
4AA/	4AA/	4ee\	4cc#\
=72	=72	=72	=72
2.D\	2.D\	2.dd\	2.dd\
=73	=73	=73	=73
!! Adagio.
2.r	2.r	2.r	(8ddd\L
.	.	.	8ccc\
.	.	.	8bb-\
.	.	.	8ccc\J
.	.	.	4ddd\)
=74	=74	=74	=74
2.E\	2.E\	2.gg\	(2ddd\
.	.	.	4ccc\)
=75	=75	=75	=75
2.r	2.r	2.r	(8ccc\L
.	.	.	8bb-\
.	.	.	8aa\
.	.	.	8bb-\J
.	.	.	4ccc\)
=76	=76	=76	=76
2.D\	2.D\	2.ff\	(2cccT\
.	.	.	4bb-\)
=77	=77	=77	=77
2.r	2.r	2.r	(8bb-\L
.	.	.	8aa\
.	.	.	8gg\
.	.	.	8aa\J
.	.	.	4bb-\)
=78	=78	=78	=78
2.C/	2.C/	2.ee\	(2bb-T\
.	.	.	4aa\)
=79	=79	=79	=79
2.r	2.r	2.r	(8aa\L
.	.	.	8gg\
.	.	.	8ff\
.	.	.	8gg\J)
.	.	.	4aa-\
=80	=80	=80	=80
2.BB-/	2.BB-/	2.dd\	(2aa-\
.	.	.	4gg\)
=81	=81	=81	=81
2.r	2.r	2.r	2ggt\
.	.	.	4ff\
=82	=82	=82	=82
2.C/	2.C/	2.cc\	2.ee\
=83	=83	=83	=83
2.C/	2.C/	2.g/	(8ee-\L
.	.	.	8dd\
.	.	.	8cc\
.	.	.	8dd\J
.	.	.	4ee-\)
=84	=84	=84	=84
2.F\	2.F\	2.a-/	(2ee-\
.	.	.	4dd\)
=85	=85	=85	=85
2.B-\	2.B-\	2.f/	(8dd-\L
.	.	.	8cc\
.	.	.	8b-\
.	.	.	8cc\J
.	.	.	4dd-\)
=86	=86	=86	=86
2.E-\	2.E-\	2.g/	(2dd-T\
.	.	.	4cc\)
=87	=87	=87	=87
!! Allegro.
4.E\	4.E\	8cc\L	8ee\L
.	.	8b\	8dd\
.	.	8cc\	8ee\
8D\	8D\	8dd\J	8ff\J
4C/	4C/	4ee\	4gg\
=88	=88	=88	=88
2F\	2F\	8ff\L	8aa\L
.	.	8ee\	8gg\
.	.	8ff\	8aa\
.	.	8gg\J	8bb-\J
4AA/	4AA/	4aa\	4ccc\
=89	=89	=89	=89
2C/	2C/	8ee\L	8gg\L
.	.	8dd\	8ff\
.	.	8ee\	8gg\
.	.	8ff\J	8aa\J
4CC/	4CC/	4ee\	4gg\
=90	=90	=90	=90
2.FF/	2.FF/	2.ff\	2.ff\
=91	=91	=91	=91
8F\L	8F\L	4.a/	2ccc\
8E\	8E\	.	.
8F\	8F\	.	.
8G\J	8G\J	8b-\	.
4A\	4A\	4cc\	4ccc\
=92	=92	=92	=92
8B-\L	8B-\L	4.dd\	2ff\
8A\	8A\	.	.
8B-\	8B-\	.	.
8c\J	8c\J	8ee\	.
4d\	4d\	4ff\	4bb-\
=93	=93	=93	=93
2c\	2c\	4ff\	4aa\
.	.	2ee\	2gg\
4C/	4C/	.	.
=94	=94	=94	=94
2.FF/	2.FF/	2.ff\	2.ff\
=95	=95	=95	=95
8F\L	8F\L	4.a/	2ccc\
8E\	8E\	.	.
8F\	8F\	.	.
8G\J	8G\J	8b-\	.
4A\	4A\	4cc\	4ccc\
=96	=96	=96	=96
8B-\L	8B-\L	4.dd\	2ff\
8A\	8A\	.	.
8B-\	8B-\	.	.
8c\J	8c\J	8ee\	.
4d\	4d\	4ff\	4bb-\
=97	=97	=97	=97
2c\	2c\	4ff\	4aa\
.	.	2ee\	2gg\
4C/	4C/	.	.
=98	=98	=98	=98
2.FF/	2.FF/	2.ff\	2.ff\
==	==	==	==
*-	*-	*-	*-
!!!CDT: 1653/2/17/-1713/1/8
!!!OCY: Italia
!!!ODE: Queen Christina Alexandra of Sweden
!!!ODT: 1681//
!!!OPC: Roma; Rome
!!!AGN: trio sonata
!!!AST: baroque, chamber
!!!AMT: simple triple
!!!YOR1: J. Joachim & F. Chrysander (eds.) Les Oeuvre de Arcangelo Corelli
!!!YOR2: London: Augener & Co. 1871
!!!YOY: 1871
!!!AIN: archl cello organ violn
!!!EEV: 1.1
!!!RDT: 1993 August 16
!!!YER: 1994 December 14
!!!EMD: 1996 July 9
!!!YEN: United States of America
!!!EFL: 4/4
!!!ENC: Frances Bennion & Steven Rasmussen
!!!EED: W.B. Hewlett
!!!VTS: 4056378848
